X:1
T:Chaplain to the Forces
T:Chaplain to the Forces
T:Jolhn Bacchus Dykes, 1861
T:Winifred Mary Letts, 1916
T:Public Domain Courtesy of the Cyber Hymnal™
T:Public Domain Courtesy of the Cyber Hymnal™
C:Jolhn Bacchus Dykes, 1861
Z:Public Domain
Z:Courtesy of the Cyber Hymnal™
%%score ( 1 2 ) ( 3 4 )
L:1/8
Q:1/4=110
M:4/4
K:C
V:1 treble 
V:2 treble 
V:3 bass 
V:4 bass 
V:1
 C2 | [CE]3 [CE] [EG]2 [EG]2 x | [FA]2 [FA]2 [EG]2 G2 | c2 (z ^F) [GB]2 G2 | %4
w: 1.~Am-|bas- sa- dors of|Christ you go Up|to * the ve-|
w: 2.~It|is not small, your|priest- hood’s price, To|be * a man|
w: 3.~But|yours, for our great|cap- tain Christ To|know * the sweat|
w: 4.~In|the pale gleam of|new- born day A-|part * in some|
w: 5.~As|sen- ti- nel you|guard the gate ’Twixt|life * and death,|
w: 6.~Then|God go with you,|priest of God, For|all * is well|
 [DG]2 [D^F]2 !fermata![DG]2 [B,D]2 | [DF]3 [DF] [CE]2 [CE]2 | [EG]3 [EG] [D^F]2 [FB]2 | %7
w: ry gates of hell,|Through fog of pow-|der, storm of shell,|
w: and yet stand by,|To hold your life|whilst o- thers die,|
w: of a- go- ny,|The dark- ness of|Geth- se- ma- ne|
w: tree- sha- dowed place,|Your al- tar but|a pack- ing case,|
w: and un- to death|Speed the brave soul|whose fail- ing breath|
w: and shall be well.|What though you tread|the roads of hell?|
 G2 (z ^D) E2 (z =F) x2 | [EG]2 [^D^F]2 !fermata!E2 [B,E]2 | [_B,E]3 [B,E] [A,F]2 [CF]2 | %10
w: To * speak *|* your Mas- ter’s|mes- sage: “Lo, The|
w: To * bless, *|* not share the|sac- ri- fice, To|
w: In * an- *|* guish for these|souls un- priced. Vice-|
w: Rude * as *|* the shed where|Ma- ry lay, Your|
w: Shud- * ders *|* not at the|grip of fate, But|
w: With * nail- *|* pierced feet these|ways He trod A-|
 [C^F]3 [CF] [B,G]2 [=FG]2 | [EG]2 [DA]2 [EG]2 [CE]2 | [B,D]3 C !fermata!C2 |] %13
w: Prince of Peace is|with you still, His|peace be with|
w: watch the strife and|take no part— You|with the fi-|
w: re- gent of God’s|pi- ty you, A|sword must pierce|
w: sanc- tu- ary the|rain- drenched sod You|bring the kneel-|
w: an- swers, gal- lant|to the end, Christ|is the Word—|
w: bove the an- guish|and the loss Still|floats the en-|
V:2
 C2 | x9 | x6 G2 | G3 (d2 x DE) | x8 | x8 | x8 | E3 (^F2 E3) A2 | x4 E2 x2 | x8 | x8 | x8 | %12
 x3 C C2 |] %13
V:3
 [C,E,]2 | [C,G,]3 [C,G,] C3 z x | ([F,A,][G,B,]) ([A,C][B,D]) [CE]2 [B,D]2 | %3
 [A,C]2 [D,A,]2 [G,B,]2 ([B,,D][C,C]) | [D,A,]2 [D,A,]2 !fermata![G,B,]2 G,2 | %5
 [B,,G,]3 [B,,G,] [C,G,]2 [C,G,]2 | [^C,A,]3 [C,A,] [D,A,]2 [^D,B,]2 | %7
 [E,B,]2 [^F,A,]2 [G,B,]2 [A,C]2 x2 | B,2 [B,,B,]2 !fermata![E,G,]2 [E,G,]2 | %9
 [C,G,]3 [C,G,] F,2 [F,A,]2 | [D,A,]3 [D,A,] G,2 [B,,D]2 | [C,C]2 [^F,,C]2 [G,,C]2 [G,,G,]2 | %12
 [G,,F,]3 [C,E,] !fermata![C,E,]2 |] %13
V:4
 x2 | x4 C,2 (C,2 B,) | x8 | x8 | x6 G,2 | x8 | x8 | x10 | B,2 x6 | x4 F,2 x2 | x4 G,2 x2 | x8 | %12
 x6 |] %13

